!! 00000] TT[00
!! NN
!!!OTL: Yu min haozi
!!!ARE: Asia, China,ÿHebei, Fengnan
!! Ethnic Group: Han
!! IV, 22
!!!SCT: C0368
!!!YEM: Copyright 1995, estate of Helmut Schaffrath.
**kern
*ICvox
*Ivox
*M2/4
*k[f#]
*G:
{4dd
8b
8a
=1
4g
4g
=2
8a
8b
8dd
8ee
=3
4g
4g}
=4
{4dd
8d
8d
=5
8g
8g
4g
=6
8dd
8b
8a
8f#
=7
4g
4g}
=8
{8a
8b
4dd
=9
8gg
8ee
4dd
=10
8dd
8a
8.b
16a
=11
4g
4g}
=12
{8dd
8b
8a
8g
=13
4gg
8a
8g
=14
8a
16g
16a
8b
8a
=15
8g
8g
4g}
=16
{8a
16g
16a
8b
8a
=17
8g
8g
4g
=18
8a
16g
16a
8b
8a
=19
8g
8g
4g}
==
!!!AGN: Haozi, Yumin haozi. Xunzhao yuqun shi chang
!! Hier werden insgesamt 5 Lieder zusammengesetzt: 1. Xun zao yu chun;
!!    2. Yao lu; 3. Chi fan; 4. lao wang; 5. zhuang can, Transport in die
!!    Kantine.
!!    Glissando.
!!!ONB: ESAC (Essen Associative Code) Database: CHINA
!!!AMT: simple duple
!!!AIN: vox
!!!EED: Helmut Schaffrath
!!!EEV: 1.0
*-
